X: 1
T: Reel De Normandin
M: 4/4
L: 1/8
R: reel
K: Dmaj
Q:225
Ad |:\
M:4/4
fzgz f2d2 | B2d2 A2dd | fzgz f2d2 | B2d2 A2ee |
ezfz e2c2 | B2A2 e2ee | ezfz e2c2 |\
M:6/4
[1 B2A2 d4 dzAF :|[2 B2A2 d2FG A2GF ||
|:\
M:4/4
F4 F2A2 | d2e2 f2ze | fzb2 a4 | a2f2 d2ff | 
e2d2 c4 | c2BB A2F2 |[1 g2e2 c4 | c2BB A2F2 |
M:6/4
e2d2 A4 A3G :|[2\
M:4/4
e2c2 c4 | c2BB AFAA |\
M:6/4
BFBc d4 d2dd |]
